lib/brands/icons/docker.svg

<svg xmlns="http://www.w3.org/2000/svg" fill="none" aria-hidden="true" viewBox="0 0 48 48"><g id="docker-Icon"><path id="Vector" fill="#2396ED" d="M41.2569 20.9239C40.4462 20.3615 38.5885 20.1505 37.1361 20.4318C36.9672 19.0256 36.1903 17.7952 34.8392 16.7054L34.0624 16.1429L33.5219 16.9515C32.8464 18.0061 32.5086 19.4826 32.6099 20.8888C32.6437 21.381 32.8126 22.2598 33.3193 23.0332C32.8464 23.3145 31.8668 23.666 30.5833 23.666H6.16239L6.09484 23.9473C5.85839 25.3535 5.85839 29.7478 8.62813 33.1227C10.7223 35.689 13.8298 36.9897 17.9169 36.9897C26.7665 36.9897 33.3193 32.736 36.393 25.0371C37.609 25.0722 40.2098 25.0371 41.5271 22.4005C41.5609 22.3301 41.6285 22.1895 41.8649 21.6622L42 21.381L41.2569 20.9239ZM25.6856 11.0103H21.9701V14.5258H25.6856V11.0103ZM25.6856 15.2289H21.9701V18.7443H25.6856V15.2289ZM21.2946 15.2289H17.5791V18.7443H21.2946V15.2289ZM16.9035 15.2289H13.188V18.7443H16.9035V15.2289ZM12.5125 19.4474H8.79701V22.9629H12.5125V19.4474ZM16.9035 19.4474H13.188V22.9629H16.9035V19.4474ZM21.2946 19.4474H17.5791V22.9629H21.2946V19.4474ZM25.6856 19.4474H21.9701V22.9629H25.6856V19.4474ZM30.0766 19.4474H26.3612V22.9629H30.0766V19.4474Z"/></g></svg>

<svg xmlns="http://www.w3.org/2000/svg" fill="none" aria-hidden="true" viewBox="0 0 48 48"><path fill="#2396ED" d="M41.257 20.924c-.81-.563-2.668-.773-4.12-.492-.17-1.406-.947-2.637-2.298-3.727l-.777-.562-.54.808c-.676 1.055-1.013 2.532-.912 3.938.034.492.203 1.37.71 2.144-.474.281-1.453.633-2.737.633H6.163l-.068.281c-.237 1.407-.237 5.8 2.533 9.176 2.094 2.566 5.202 3.867 9.289 3.867 8.85 0 15.402-4.254 18.476-11.953 1.216.035 3.817 0 5.134-2.636.034-.07.102-.212.338-.739l.135-.281-.743-.457ZM25.686 11.01H21.97v3.516h3.716V11.01Zm0 4.219H21.97v3.515h3.716V15.23Zm-4.391 0h-3.716v3.515h3.716V15.23Zm-4.392 0h-3.715v3.515h3.716V15.23Zm-4.39 4.218H8.796v3.516h3.715v-3.516Zm4.39 0h-3.715v3.516h3.716v-3.516Zm4.392 0h-3.716v3.516h3.716v-3.516Zm4.39 0H21.97v3.516h3.716v-3.516Zm4.392 0H26.36v3.516h3.716v-3.516Z"/></svg>
